svg/u0032_20e3.svg

<svg viewBox="0 0 128 128" xmlns="http://www.w3.org/2000/svg">
  <g>
    <path d="M116.46,3.96h-104c-4.42,0-8,3.58-8,8v104c0,4.42,3.58,8,8,8h104c4.42,0,8-3.58,8-8v-104 C124.46,7.54,120.88,3.96,116.46,3.96z" fill="#427687"/>
    <path d="M122.16,6.26c-1.54-1.46-3.58-2.28-5.7-2.3h-104c-4.42,0-8,3.58-8,8v104 c0.02,2.12,0.84,4.16,2.3,5.7l16.8-16.8h76c3.26-0.01,5.89-2.64,5.9-5.9v-76L122.16,6.26z" fill="#8CAFBF"/>
    <path d="M86.16,97.86h-42.2c-0.99,0.01-1.79-0.79-1.8-1.78c0-0.01,0-0.01,0-0.02v-5.3 c0-0.45,0.18-0.88,0.5-1.2l22.2-24.2c2.65-2.82,4.99-5.9,7-9.2c1.35-2.23,2.07-4.79,2.1-7.4c0.12-2.88-0.84-5.7-2.7-7.9 c-1.91-2.04-4.61-3.14-7.4-3c-3.7,0-6.5,1.1-8.6,3.4c-1.79,2.11-2.84,4.74-3,7.5c-0.07,0.95-0.85,1.68-1.8,1.7h-7.7 c-0.99,0.01-1.8-0.78-1.81-1.77c0-0.08,0-0.16,0.01-0.23c0.24-3.24,1.2-6.38,2.8-9.2c1.89-3.3,4.7-5.98,8.1-7.7 c3.75-1.89,7.9-2.85,12.1-2.8c6.6,0,11.8,1.7,15.7,5s5.7,7.9,5.7,13.8c-0.1,3.75-1.1,7.41-2.9,10.7c-2.58,4.62-5.74,8.89-9.4,12.7 l-13.8,14.8c-0.7,0.73-0.68,1.89,0.05,2.59c0.34,0.32,0.78,0.51,1.25,0.51h25.6c0.99-0.01,1.79,0.79,1.8,1.78c0,0.01,0,0.01,0,0.02 v5.4c0.01,0.99-0.79,1.79-1.78,1.8C86.17,97.86,86.17,97.86,86.16,97.86z" fill="#FAFAFA"/>
    <path d="M40.16,12.86c0-2.3-1.6-3-10.8-2.7c-7.7,0.3-11.5,1.2-13.8,4 s-2.9,8.5-3,15.3c0,4.8,0,9.3,2.5,9.3c3.4,0,3.4-7.9,6.2-12.3C26.66,17.76,40.16,15.86,40.16,12.86z" opacity="0.5" fill="#B4E1ED" enable-background="new "/>
  </g>
</svg>

<svg viewBox="0 0 128 128" xmlns="http://www.w3.org/2000/svg">
  <defs/>
  <path d="M116.46,3.96 L12.46,3.96 C8.04,3.96 4.46,7.54 4.46,11.96 L4.46,115.96 C4.46,120.38 8.04,123.96 12.46,123.96 L116.46,123.96 C120.88,123.96 124.46,120.38 124.46,115.96 L124.46,11.96 C124.46,7.54 120.88,3.96 116.46,3.96 Z" fill="#427687"/>
  <path d="M122.16,6.26 C120.62,4.8 118.58,3.98 116.46,3.96 L12.46,3.96 C8.04,3.96 4.46,7.54 4.46,11.96 L4.46,115.96 C4.48,118.08 5.3,120.12 6.76,121.66 L23.56,104.86 L99.56,104.86 C102.82,104.85 105.45,102.22 105.46,98.96 L105.46,22.96 L122.16,6.26 Z" fill="#8CAFBF"/>
  <path d="M86.16,97.86 L43.96,97.86 C42.97,97.87 42.17,97.07 42.16,96.08 C42.16,96.07 42.16,96.07 42.16,96.06 L42.16,90.76 C42.16,90.31 42.34,89.88 42.66,89.56 L64.86,65.36 C67.51,62.54 69.85,59.46 71.86,56.16 C73.21,53.93 73.93,51.37 73.96,48.76 C74.08,45.88 73.12,43.06 71.26,40.86 C69.35,38.82 66.65,37.72 63.86,37.86 C60.16,37.86 57.36,38.96 55.26,41.26 C53.47,43.37 52.42,46 52.26,48.76 C52.19,49.71 51.41,50.44 50.46,50.46 L42.76,50.46 C41.77,50.47 40.96,49.68 40.95,48.69 C40.95,48.61 40.95,48.53 40.96,48.46 C41.2,45.22 42.16,42.08 43.76,39.26 C45.65,35.96 48.46,33.28 51.86,31.56 C55.61,29.67 59.76,28.71 63.96,28.76 C70.56,28.76 75.76,30.46 79.66,33.76 C83.56,37.06 85.36,41.66 85.36,47.56 C85.26,51.31 84.26,54.97 82.46,58.26 C79.88,62.88 76.72,67.15 73.06,70.96 L59.26,85.76 C58.56,86.49 58.58,87.65 59.31,88.35 C59.65,88.67 60.09,88.86 60.56,88.86 L86.16,88.86 C87.15,88.85 87.95,89.65 87.96,90.64 C87.96,90.65 87.96,90.65 87.96,90.66 L87.96,96.06 C87.97,97.05 87.17,97.85 86.18,97.86 C86.17,97.86 86.17,97.86 86.16,97.86 Z" fill="#FAFAFA"/>
  <path d="M40.16,12.86 C40.16,10.56 38.56,9.86 29.36,10.16 C21.66,10.46 17.86,11.36 15.56,14.16 C13.26,16.96 12.66,22.66 12.56,29.46 C12.56,34.26 12.56,38.76 15.06,38.76 C18.46,38.76 18.46,30.86 21.26,26.46 C26.66,17.76 40.16,15.86 40.16,12.86 Z" fill="#B4E1ED" opacity="0.5"/>
</svg>
